public/assets/teddy-day/bg-teddy.svg

<?xml version="1.0" encoding="UTF-8" standalone="no"?>
<svg
   width="2293.6001"
   height="1394.5"
   viewBox="0 0 2293.6001 1394.5"
   version="1.1"
   id="svg47"
   xmlns:xlink="http://www.w3.org/1999/xlink"
   xmlns="http://www.w3.org/2000/svg"
   xmlns:svg="http://www.w3.org/2000/svg">
  <defs
     id="defs21">
    <linearGradient
       id="teddyGradient"
       x1="0"
       y1="0"
       x2="1440"
       y2="1440"
       gradientTransform="matrix(1.3333333,0,0,0.75,143.2,145)"
       gradientUnits="userSpaceOnUse">
      <stop
         offset="0%"
         style="stop-color:#FFF8F0;stop-opacity:1"
         id="stop2" />
      <stop
         offset="40%"
         style="stop-color:#FFE8F0;stop-opacity:1"
         id="stop4" />
      <stop
         offset="70%"
         style="stop-color:#FFD4E5;stop-opacity:1"
         id="stop6" />
      <stop
         offset="100%"
         style="stop-color:#F5E6D3;stop-opacity:1"
         id="stop8" />
    </linearGradient>
    <radialGradient
       id="softGlow">
      <stop
         offset="0%"
         style="stop-color:#FFDAB9;stop-opacity:0.4"
         id="stop11" />
      <stop
         offset="50%"
         style="stop-color:#FFD4E5;stop-opacity:0.2"
         id="stop13" />
      <stop
         offset="100%"
         style="stop-color:#FFD4E5;stop-opacity:0"
         id="stop15" />
    </radialGradient>
    <filter
       id="plushBlur"
       x="-0.036"
       y="-0.045"
       width="1.072"
       height="1.09">
      <feGaussianBlur
         in="SourceGraphic"
         stdDeviation="15"
         id="feGaussianBlur18" />
    </filter>
    <radialGradient
       xlink:href="#softGlow"
       id="radialGradient51"
       gradientTransform="matrix(1.0863625,0,0,0.92050306,143.2,145)"
       cx="460.25154"
       cy="434.54502"
       fx="460.25154"
       fy="434.54502"
       r="592.06758"
       gradientUnits="userSpaceOnUse" />
    <radialGradient
       xlink:href="#softGlow"
       id="radialGradient53"
       gradientTransform="matrix(1.1187984,0,0,0.89381612,143.2,145)"
       cx="1251.3426"
       cy="727.21895"
       fx="1251.3426"
       fy="727.21895"
       r="670.71963"
       gradientUnits="userSpaceOnUse" />
    <radialGradient
       xlink:href="#softGlow"
       id="radialGradient55"
       gradientTransform="matrix(1.1087641,0,0,0.90190512,143.2,145)"
       cx="856.80987"
       cy="332.62924"
       fx="856.80987"
       fy="332.62924"
       r="483.42115"
       gradientUnits="userSpaceOnUse" />
  </defs>
  <!-- Base gradient -->
  <rect
     width="1920"
     height="1080"
     fill="url(#teddyGradient)"
     id="rect23"
     x="143.2"
     y="145"
     style="fill:url(#teddyGradient)" />
  <!-- Soft glows for cozy vibe -->
  <ellipse
     cx="643.20001"
     cy="545"
     rx="600"
     ry="500"
     fill="url(#softGlow)"
     filter="url(#plushBlur)"
     id="ellipse25"
     style="fill:url(#radialGradient51)" />
  <ellipse
     cx="1543.2"
     cy="795"
     rx="700"
     ry="550"
     fill="url(#softGlow)"
     filter="url(#plushBlur)"
     id="ellipse27"
     style="fill:url(#radialGradient53)" />
  <ellipse
     cx="1093.2"
     cy="445"
     rx="500"
     ry="400"
     fill="url(#softGlow)"
     filter="url(#plushBlur)"
     opacity="0.6"
     id="ellipse29"
     style="fill:url(#radialGradient55)" />
  <!-- Tiny hearts -->
  <g
     opacity="0.2"
     id="g43"
     transform="translate(143.2,145)">
    <path
       d="m 350,250 c 0,-3 2,-5 4,-5 1,0 2,1 2,2 0,-1 1,-2 2,-2 2,0 4,2 4,5 0,3 -6,7 -6,7 0,0 -6,-4 -6,-7 z"
       fill="#ffb6c1"
       id="path31" />
    <path
       d="m 850,300 c 0,-3 2,-5 4,-5 1,0 2,1 2,2 0,-1 1,-2 2,-2 2,0 4,2 4,5 0,3 -6,7 -6,7 0,0 -6,-4 -6,-7 z"
       fill="#ffb6c1"
       id="path33" />
    <path
       d="m 1450,280 c 0,-3 2,-5 4,-5 1,0 2,1 2,2 0,-1 1,-2 2,-2 2,0 4,2 4,5 0,3 -6,7 -6,7 0,0 -6,-4 -6,-7 z"
       fill="#ffb6c1"
       id="path35" />
    <path
       d="m 550,650 c 0,-3 2,-5 4,-5 1,0 2,1 2,2 0,-1 1,-2 2,-2 2,0 4,2 4,5 0,3 -6,7 -6,7 0,0 -6,-4 -6,-7 z"
       fill="#ffb6c1"
       id="path37" />
    <path
       d="m 1300,750 c 0,-3 2,-5 4,-5 1,0 2,1 2,2 0,-1 1,-2 2,-2 2,0 4,2 4,5 0,3 -6,7 -6,7 0,0 -6,-4 -6,-7 z"
       fill="#ffb6c1"
       id="path39" />
    <path
       d="m 700,500 c 0,-3 2,-5 4,-5 1,0 2,1 2,2 0,-1 1,-2 2,-2 2,0 4,2 4,5 0,3 -6,7 -6,7 0,0 -6,-4 -6,-7 z"
       fill="#ffb6c1"
       id="path41" />
  </g>
  <!-- Subtle overlay -->
  <rect
     width="1920"
     height="1080"
     fill="#ffffff"
     opacity="0.04"
     id="rect45"
     x="143.2"
     y="145" />
</svg>

<svg width="1920" height="1080" viewBox="0 0 1920 1080" xmlns="http://www.w3.org/2000/svg">
  <defs>
    <linearGradient id="teddyGradient" x1="0%" y1="0%" x2="100%" y2="100%">
      <stop offset="0%" style="stop-color:#FFF8F0;stop-opacity:1"/>
      <stop offset="40%" style="stop-color:#FFE8F0;stop-opacity:1"/>
      <stop offset="70%" style="stop-color:#FFD4E5;stop-opacity:1"/>
      <stop offset="100%" style="stop-color:#F5E6D3;stop-opacity:1"/>
    </linearGradient>
    
    <radialGradient id="softGlow">
      <stop offset="0%" style="stop-color:#FFDAB9;stop-opacity:0.4"/>
      <stop offset="50%" style="stop-color:#FFD4E5;stop-opacity:0.2"/>
      <stop offset="100%" style="stop-color:#FFD4E5;stop-opacity:0"/>
    </radialGradient>
    
    <filter id="plushBlur">
      <feGaussianBlur in="SourceGraphic" stdDeviation="15"/>
    </filter>
  </defs>
  
  <!-- Base gradient -->
  <rect width="1920" height="1080" fill="url(#teddyGradient)"/>
  
  <!-- Soft glows for cozy vibe -->
  <ellipse cx="500" cy="400" rx="600" ry="500" fill="url(#softGlow)" filter="url(#plushBlur)"/>
  <ellipse cx="1400" cy="650" rx="700" ry="550" fill="url(#softGlow)" filter="url(#plushBlur)"/>
  <ellipse cx="950" cy="300" rx="500" ry="400" fill="url(#softGlow)" filter="url(#plushBlur)" opacity="0.6"/>
  
  <!-- Tiny hearts -->
  <g opacity="0.2">
    <path d="M 350 250 C 350 247 352 245 354 245 C 355 245 356 246 356 247 C 356 246 357 245 358 245 C 360 245 362 247 362 250 C 362 253 356 257 356 257 C 356 257 350 253 350 250 Z" fill="#FFB6C1"/>
    <path d="M 850 300 C 850 297 852 295 854 295 C 855 295 856 296 856 297 C 856 296 857 295 858 295 C 860 295 862 297 862 300 C 862 303 856 307 856 307 C 856 307 850 303 850 300 Z" fill="#FFB6C1"/>
    <path d="M 1450 280 C 1450 277 1452 275 1454 275 C 1455 275 1456 276 1456 277 C 1456 276 1457 275 1458 275 C 1460 275 1462 277 1462 280 C 1462 283 1456 287 1456 287 C 1456 287 1450 283 1450 280 Z" fill="#FFB6C1"/>
    <path d="M 550 650 C 550 647 552 645 554 645 C 555 645 556 646 556 647 C 556 646 557 645 558 645 C 560 645 562 647 562 650 C 562 653 556 657 556 657 C 556 657 550 653 550 650 Z" fill="#FFB6C1"/>
    <path d="M 1300 750 C 1300 747 1302 745 1304 745 C 1305 745 1306 746 1306 747 C 1306 746 1307 745 1308 745 C 1310 745 1312 747 1312 750 C 1312 753 1306 757 1306 757 C 1306 757 1300 753 1300 750 Z" fill="#FFB6C1"/>
    <path d="M 700 500 C 700 497 702 495 704 495 C 705 495 706 496 706 497 C 706 496 707 495 708 495 C 710 495 712 497 712 500 C 712 503 706 507 706 507 C 706 507 700 503 700 500 Z" fill="#FFB6C1"/>
  </g>
  
  <!-- Subtle overlay -->
  <rect width="1920" height="1080" fill="#FFFFFF" opacity="0.04"/>
</svg>
